X: 134004
T: The WEDDING
Q: "Irish Reel."
R: Reel.
%R: reel
B: James Kerr "Merry Melodies" v.1 p.34 s.0 #4
Z: 2017 John Chambers <jc:trillian.mit.edu>
M: C
L: 1/8
K: G
|: (uGA) |!segno!\
B2(AG) BGAG | BGAB cedc |\
BGAG BGAG | FDAF G2:|\
(uef) |\
g2ge (fg)af | g2ge (fd)df |
g2ge (fg)af | bgef g2(ef) |\
g2ge (fg)af | g2ge (fd)df |\
g2ge (fg)af | bgef gedc |]

%%sep 1 1 500
%%sep 1 1 500

